X: 1
T: SWIMMING IN THE GUTTER -- JIG
C: Conn.Regan
R: jig
B: Ryan's Mammoth Collection of Fiddle Tunes
M: 6/8
L: 1/8
Z: Contributed 20000831191710 by John Chambers John.Chambers:weema.com
K: Dm
{vB=Bc^c}"fz"kd3 AFA | "fz"kd3 AFA | d^cd fed | eba gfe \
| "fz"kd3 AFA | "fz"kd3 AFA | def gag |1 fdd d3 :|2 fdd d |]
|: vcuB \
| Acf {g}fef | "3"a"4"c'"3"a fcf | dbd cac | Bag ecB \
| Acf {g}fef | "3"a"4"c'"3"a fcf | dbd cac |1 {f}ede f :|2 {f}ede f2z |]
